X:7856
T:March
C:Nicholas Ch\'edeville
O:France
R:March
Z:Transcribed by Frank Nordberg - http://www.musicaviva.com
F:http://abc.musicaviva.com/tunes/chedeville-nicholas/chedeville-march.abc
M:C
L:1/8
K:C
G2|:"C"c2ccc2"G"G2|"C"c4c2ef|"C"g2ag"G7"f2gf|[1"C"ed"G"ef"C"e2G2:|
[2"C"e6|:cd|"C"e2e2e2fe|"G7"d2d2d2ed|"C"c2c2c2BA|
"Dm7"BABc"G7"B2cd|"C"e2e2e2fe|"G7"d2d2d2ed|"C"cBcd"G7"B3G|"C"c2GGc2:|
W:
W:
W:  From Musica Viva - http://www.musicaviva.com
W:  the Internet center for free sheet music downloads.
